!!!OTL: Die dienende Schwester Es wohnt ein Pfalzgraf an dem Rhein,
!!!ARE: Europa, Mitteleuropa, Deutschland / France, Lothringen
!!!YOR: 4, S. 104
!!    1926 gedruckt in Heidelberg
!!!SCT: Q0075D
!!!YEM: Copyright 1995, estate of Helmut Schaffrath.
**kern
*ICvox
*Ivox
*M4/4
*k[b-]
*F:
{8f
8g
=1
4a
4a
8a
8g
4g
=2
4a
4g
2f}
=3
{4g
4b-
4a
4g
=4
4f
4e
4d}
{4e
=5
4f
4e
4.d
8a
=6
2a
8g
8a
4b-
=7
2a
4r}
==
!!!AGN: Ballade, Adelige als Dienstmagd, Tod; Kinder - Spiel, Tanz
!!!ONB: ESAC (Essen Associative Code) Database: BALLADE
!!!AMT: simple quadruple
!!!AIN: vox
!!!EED: Helmut Schaffrath
!!!EEV: 1.0
*-
